src/svg/uf251-hourglass-1,hourglass-start.svg

<!-- Generated by IcoMoon.io -->
<svg version="1.1" xmlns="http://www.w3.org/2000/svg" width="27" height="32" viewBox="0 0 27 32">
<path d="M25.143 2.286c0 6.607-3.161 11.393-6.661 13.714 3.5 2.321 6.661 7.107 6.661 13.714h1.714c0.321 0 0.571 0.25 0.571 0.571v1.143c0 0.321-0.25 0.571-0.571 0.571h-26.286c-0.321 0-0.571-0.25-0.571-0.571v-1.143c0-0.321 0.25-0.571 0.571-0.571h1.714c0-6.607 3.161-11.393 6.661-13.714-3.5-2.321-6.661-7.107-6.661-13.714h-1.714c-0.321 0-0.571-0.25-0.571-0.571v-1.143c0-0.321 0.25-0.571 0.571-0.571h26.286c0.321 0 0.571 0.25 0.571 0.571v1.143c0 0.321-0.25 0.571-0.571 0.571h-1.714zM22.857 2.286h-18.286c0 0.786 0.054 1.554 0.161 2.286h17.964c0.107-0.732 0.161-1.5 0.161-2.286zM22.857 29.714c0-6.411-3.536-11.143-7.089-12.571h-4.107c-3.554 1.429-7.089 6.161-7.089 12.571h18.286z"></path>
</svg>

<svg xmlns="http://www.w3.org/2000/svg" width="27" height="32"><path d="M25.143 2.286c0 6.607-3.161 11.393-6.661 13.714 3.5 2.321 6.661 7.107 6.661 13.714h1.714c.321 0 .571.25.571.571v1.143c0 .321-.25.571-.571.571H.571A.564.564 0 0 1 0 31.428v-1.143c0-.321.25-.571.571-.571h1.714c0-6.607 3.161-11.393 6.661-13.714-3.5-2.321-6.661-7.107-6.661-13.714H.571A.564.564 0 0 1 0 1.715V.572C0 .251.25.001.571.001h26.286c.321 0 .571.25.571.571v1.143c0 .321-.25.571-.571.571h-1.714zm-2.286 0H4.571c0 .786.054 1.554.161 2.286h17.964c.107-.732.161-1.5.161-2.286zm0 27.428c0-6.411-3.536-11.143-7.089-12.571h-4.107c-3.554 1.429-7.089 6.161-7.089 12.571h18.286z"/></svg>
